X:245
T:Push About the Jorum. RH.245
R:reel
S:Rev.R.Harrison’s MS,c1815,Cumbria
O:England
A:Temple Sowerby,Cumbria
Z:vmp.Simon Wilson. Review PJH, 2008.
M:2/4
L:1/8
Q:1/4=170
K:G
g|dBAG|FAAc|BABd|g2fe|\
dGBG|FAAB|EGFA|G2G:|!
|:d|ggfg|afdd|ggfg|a2dd|\
ggfg|afed|(e/f/g) (f/g/a)|g3f/e/|!
dGBG|FAAc|BGBd|g2fe|\
dGBG|FAAB|EGFA|G2G:|

